X: 580
T: Meimei jiaopengyou
L: 1/8
M: 2/4
K: F
d cA2 [I:setbarnb 1]| 
d cA2 | 
f d/ c/ d c | 
F> GA2 | 
f d/ c/ d c | 
A c F D | 
D G E D | 
C4 | 
F DF2 | 
c C/ D/F2 | 
F DF2 | 
C C/ D/F2 | 
F D F D | 
c dc2 | 
G G/ G/ c D | 
C4 |]

@@@ Tune index: 9454
